graf-hel-halvcrikel.svg

<?xml version="1.0" encoding="UTF-8" standalone="no"?>
<!-- Created with Inkscape (http://www.inkscape.org/) -->

<svg
   width="207.77235mm"
   height="207.7713mm"
   viewBox="0 0 207.77236 207.7713"
   version="1.1"
   id="svg5"
   inkscape:version="1.1 (c68e22c387, 2021-05-23)"
   sodipodi:docname="graf-hel-halvcrikel.svg"
   xmlns:inkscape="http://www.inkscape.org/namespaces/inkscape"
   xmlns:sodipodi="http://sodipodi.sourceforge.net/DTD/sodipodi-0.dtd"
   xmlns:xlink="http://www.w3.org/1999/xlink"
   xmlns="http://www.w3.org/2000/svg"
   xmlns:svg="http://www.w3.org/2000/svg">
  <sodipodi:namedview
     id="namedview7"
     pagecolor="#ffffff"
     bordercolor="#666666"
     borderopacity="1.0"
     inkscape:pageshadow="2"
     inkscape:pageopacity="0.0"
     inkscape:pagecheckerboard="0"
     inkscape:document-units="mm"
     showgrid="false"
     inkscape:snap-page="true"
     inkscape:snap-text-baseline="true"
     inkscape:snap-center="true"
     inkscape:snap-object-midpoints="true"
     inkscape:snap-midpoints="true"
     inkscape:snap-smooth-nodes="true"
     inkscape:snap-intersection-paths="true"
     inkscape:object-paths="true"
     inkscape:snap-bbox="true"
     inkscape:bbox-nodes="true"
     inkscape:bbox-paths="true"
     inkscape:snap-bbox-edge-midpoints="true"
     inkscape:snap-bbox-midpoints="true"
     inkscape:zoom="0.70757982"
     inkscape:cx="438.81975"
     inkscape:cy="231.06934"
     inkscape:window-width="1920"
     inkscape:window-height="1001"
     inkscape:window-x="-9"
     inkscape:window-y="-9"
     inkscape:window-maximized="1"
     inkscape:current-layer="g1203"
     fit-margin-top="0"
     fit-margin-left="0"
     fit-margin-right="0"
     fit-margin-bottom="0" />
  <defs
     id="defs2">
    <linearGradient
       inkscape:collect="always"
       id="linearGradient7590">
      <stop
         style="stop-color:#e10014;stop-opacity:1;"
         offset="0"
         id="stop7586" />
      <stop
         style="stop-color:#fb2b77;stop-opacity:1"
         offset="0.85063761"
         id="stop7820" />
      <stop
         style="stop-color:#e10014;stop-opacity:0;"
         offset="1"
         id="stop7588" />
    </linearGradient>
    <linearGradient
       inkscape:collect="always"
       xlink:href="#linearGradient7590"
       id="linearGradient7592"
       x1="394.89648"
       y1="893.43164"
       x2="394.18939"
       y2="-29.731527"
       gradientUnits="userSpaceOnUse" />
  </defs>
  <g
     inkscape:label="Lager 1"
     inkscape:groupmode="layer"
     id="layer1"
     transform="translate(-0.59633237,-28.615825)">
    <g
       id="g1203">
      <path
         id="path589"
         style="fill:#003ca3;fill-opacity:1;fill-rule:evenodd;stroke-width:1.40606"
         d="m 394.89453,108.1543 v 67.44726 a 325.19061,325.19061 0 0 1 0.002,0 325.19061,325.19061 0 0 1 17.36524,0.47266 325.19061,325.19061 0 0 1 0.77148,0.0488 325.19061,325.19061 0 0 1 16.48828,1.34179 325.19061,325.19061 0 0 1 1.45704,0.16993 325.19061,325.19061 0 0 1 15.85937,2.16015 325.19061,325.19061 0 0 1 1.63086,0.27735 325.19061,325.19061 0 0 1 15.44336,2.96093 325.19061,325.19061 0 0 1 1.93164,0.42969 325.19061,325.19061 0 0 1 15.08594,3.75195 325.19061,325.19061 0 0 1 1.87695,0.52149 325.19061,325.19061 0 0 1 14.91016,4.57617 325.19061,325.19061 0 0 1 1.8125,0.60547 325.19061,325.19061 0 0 1 14.83203,5.45117 325.19061,325.19061 0 0 1 1.4707,0.57617 325.19061,325.19061 0 0 1 14.88867,6.4043 325.19061,325.19061 0 0 1 1.09375,0.49414 325.19061,325.19061 0 0 1 14.98633,7.43164 325.19061,325.19061 0 0 1 0.58789,0.30273 325.19061,325.19061 0 0 1 15.08985,8.53321 325.19061,325.19061 0 0 1 0.24609,0.15234 325.19061,325.19061 0 0 1 14.36914,9.1836 325.19061,325.19061 0 0 1 0.88086,0.61132 325.19061,325.19061 0 0 1 13.21484,9.49024 325.19061,325.19061 0 0 1 1.29688,0.99805 325.19061,325.19061 0 0 1 12.32812,9.9121 325.19061,325.19061 0 0 1 1.37305,1.17579 325.19061,325.19061 0 0 1 11.62891,10.42968 325.19061,325.19061 0 0 1 1.45117,1.37891 325.19061,325.19061 0 0 1 10.98828,10.99023 325.19061,325.19061 0 0 1 1.3457,1.41602 325.19061,325.19061 0 0 1 10.43555,11.63281 325.19061,325.19061 0 0 1 1.19922,1.40039 325.19061,325.19061 0 0 1 9.94726,12.375 325.19061,325.19061 0 0 1 0.92969,1.20703 325.19061,325.19061 0 0 1 9.52149,13.25196 325.19061,325.19061 0 0 1 0.60546,0.8789 325.19061,325.19061 0 0 1 9.18555,14.3711 325.19061,325.19061 0 0 1 0.15039,0.24414 325.19061,325.19061 0 0 1 8.55469,15.1289 325.19061,325.19061 0 0 1 0.23437,0.45508 325.19061,325.19061 0 0 1 7.46875,15.05469 325.19061,325.19061 0 0 1 0.53321,1.17969 325.19061,325.19061 0 0 1 6.35547,14.77539 325.19061,325.19061 0 0 1 0.62695,1.60351 325.19061,325.19061 0 0 1 5.41992,14.75 325.19061,325.19061 0 0 1 0.61328,1.83789 325.19061,325.19061 0 0 1 4.5625,14.86524 325.19061,325.19061 0 0 1 0.53125,1.91797 325.19061,325.19061 0 0 1 3.75,15.07031 325.19061,325.19061 0 0 1 0.42969,1.92773 325.19061,325.19061 0 0 1 2.94531,15.35743 325.19061,325.19061 0 0 1 0.30078,1.77343 325.19061,325.19061 0 0 1 2.15821,15.85157 325.19061,325.19061 0 0 1 0.16015,1.36523 325.19061,325.19061 0 0 1 1.33594,16.41992 325.19061,325.19061 0 0 1 0.0606,0.9336 325.19061,325.19061 0 0 1 0.46875,17.31445 325.19061,325.19061 0 0 1 -3.9961,50.76953 325.19061,325.19061 0 0 1 -0.0391,0.23047 325.19061,325.19061 0 0 1 -11.83398,49.29297 325.19061,325.19061 0 0 1 -0.14063,0.42383 325.19061,325.19061 0 0 1 -19.33594,46.67773 325.19061,325.19061 0 0 1 -0.25,0.48828 325.19061,325.19061 0 0 1 -26.34179,42.98438 325.19061,325.19061 0 0 1 -0.39258,0.53711 325.19061,325.19061 0 0 1 -32.69336,38.27929 325.19061,325.19061 0 0 1 -0.48242,0.48438 325.19061,325.19061 0 0 1 -38.29297,32.70117 325.19061,325.19061 0 0 1 -0.51367,0.37695 325.19061,325.19061 0 0 1 -42.99414,26.34766 325.19061,325.19061 0 0 1 -0.48828,0.25 325.19061,325.19061 0 0 1 -46.68164,19.33789 325.19061,325.19061 0 0 1 -0.41797,0.14062 325.19061,325.19061 0 0 1 -49.29493,11.83399 325.19061,325.19061 0 0 1 -0.23046,0.0391 325.19061,325.19061 0 0 1 -50.76954,3.9961 325.19061,325.19061 0 0 1 -0.002,0 v 67.44726 a 392.63908,392.63908 0 0 0 0.002,0 392.63908,392.63908 0 0 0 392.63868,-392.63867 392.63908,392.63908 0 0 0 -392.63868,-392.63867 392.63908,392.63908 0 0 0 -0.002,0 z"
         transform="scale(0.26458333)" />
      <path
         id="path589-7"
         style="fill:#003ca3;fill-opacity:0;fill-rule:evenodd;stroke-width:0.37202"
         d="m 104.48251,28.615825 v 17.84542 a 86.040014,86.040014 0 0 0 -5.3e-4,0 86.040014,86.040014 0 0 0 -4.59455,0.125058 86.040014,86.040014 0 0 0 -0.20412,0.01291 86.040014,86.040014 0 0 0 -4.36253,0.355015 86.040014,86.040014 0 0 0 -0.38551,0.04496 86.040014,86.040014 0 0 0 -4.19612,0.57154 86.040014,86.040014 0 0 0 -0.4315,0.07338 86.040014,86.040014 0 0 0 -4.08605,0.783413 86.040014,86.040014 0 0 0 -0.51108,0.113688 86.040014,86.040014 0 0 0 -3.99149,0.992704 86.040014,86.040014 0 0 0 -0.49661,0.137977 86.040014,86.040014 0 0 0 -3.94498,1.210779 86.040014,86.040014 0 0 0 -0.47956,0.160197 86.040014,86.040014 0 0 0 -3.92431,1.442289 86.040014,86.040014 0 0 0 -0.38912,0.152445 86.040014,86.040014 0 0 0 -3.93929,1.694471 86.040014,86.040014 0 0 0 -0.28939,0.130741 86.040014,86.040014 0 0 0 -3.96513,1.966288 86.040014,86.040014 0 0 0 -0.15555,0.0801 86.040014,86.040014 0 0 0 -3.99252,2.257745 86.040014,86.040014 0 0 0 -0.0651,0.04031 86.040014,86.040014 0 0 0 -3.80184,2.429827 86.040014,86.040014 0 0 0 -0.23306,0.161746 86.040014,86.040014 0 0 0 -3.49643,2.510959 86.040014,86.040014 0 0 0 -0.34313,0.264067 86.040014,86.040014 0 0 0 -3.26181,2.622577 86.040014,86.040014 0 0 0 -0.36329,0.311094 86.040014,86.040014 0 0 0 -3.07682,2.75952 86.040014,86.040014 0 0 0 -0.38395,0.364836 86.040014,86.040014 0 0 0 -2.90732,2.907832 86.040014,86.040014 0 0 0 -0.35605,0.374655 86.040014,86.040014 0 0 0 -2.76107,3.077848 86.040014,86.040014 0 0 0 -0.31729,0.37052 86.040014,86.040014 0 0 0 -2.63188,3.274218 86.040014,86.040014 0 0 0 -0.24598,0.31936 86.040014,86.040014 0 0 0 -2.51923,3.506248 86.040014,86.040014 0 0 0 -0.1602,0.232542 86.040014,86.040014 0 0 0 -2.43034,3.802354 86.040014,86.040014 0 0 0 -0.0398,0.0646 86.040014,86.040014 0 0 0 -2.26343,4.002855 86.040014,86.040014 0 0 0 -0.062,0.120406 86.040014,86.040014 0 0 0 -1.9761,3.98322 86.040014,86.040014 0 0 0 -0.14108,0.312127 86.040014,86.040014 0 0 0 -1.68155,3.909324 86.040014,86.040014 0 0 0 -0.16589,0.42426 86.040014,86.040014 0 0 0 -1.43402,3.90261 86.040014,86.040014 0 0 0 -0.16226,0.48627 86.040014,86.040014 0 0 0 -1.20716,3.9331 86.040014,86.040014 0 0 0 -0.14056,0.50746 86.040014,86.040014 0 0 0 -0.99219,3.98735 86.040014,86.040014 0 0 0 -0.11369,0.51005 86.040014,86.040014 0 0 0 -0.77928,4.06332 86.040014,86.040014 0 0 0 -0.0796,0.46922 86.040014,86.040014 0 0 0 -0.57102,4.19406 86.040014,86.040014 0 0 0 -0.0424,0.36122 86.040014,86.040014 0 0 0 -0.35347,4.34443 86.040014,86.040014 0 0 0 -0.016,0.24702 86.040014,86.040014 0 0 0 -0.12402,4.58111 86.040014,86.040014 0 0 0 1.0573,13.43278 86.040014,86.040014 0 0 0 0.0103,0.061 86.040014,86.040014 0 0 0 3.13108,13.04209 86.040014,86.040014 0 0 0 0.0372,0.11214 86.040014,86.040014 0 0 0 5.11596,12.35015 86.040014,86.040014 0 0 0 0.0661,0.12919 86.040014,86.040014 0 0 0 6.9696,11.37295 86.040014,86.040014 0 0 0 0.10387,0.14211 86.040014,86.040014 0 0 0 8.65012,10.12806 86.040014,86.040014 0 0 0 0.12764,0.12816 86.040014,86.040014 0 0 0 10.13168,8.65219 86.040014,86.040014 0 0 0 0.13591,0.0997 86.040014,86.040014 0 0 0 11.37553,6.97116 86.040014,86.040014 0 0 0 0.12919,0.0661 86.040014,86.040014 0 0 0 12.35118,5.11649 86.040014,86.040014 0 0 0 0.11059,0.0372 86.040014,86.040014 0 0 0 13.04262,3.13108 86.040014,86.040014 0 0 0 0.061,0.0103 86.040014,86.040014 0 0 0 13.43278,1.0573 86.040014,86.040014 0 0 0 5.3e-4,0 v 17.84543 a 103.88576,103.88576 0 0 1 -5.3e-4,0 A 103.88576,103.88576 0 0 1 0.5963295,132.5015 103.88576,103.88576 0 0 1 104.48198,28.615852 a 103.88576,103.88576 0 0 1 5.3e-4,0 z" />
    </g>
    <g
       id="g1016">
      <path
         id="path589-7-5-0"
         style="fill:#025b9c;fill-rule:evenodd;stroke-width:1.10285"
         d="m 394.89648,192.82617 v 66.74805 a 241.2178,241.2178 0 0 1 170.56641,70.65234 241.2178,241.2178 0 0 1 0,341.13282 241.2178,241.2178 0 0 1 -170.56641,70.65234 v 66.74805 A 307.96641,307.96641 0 0 0 702.86133,500.79297 307.96641,307.96641 0 0 0 394.89648,192.82617 Z"
         transform="scale(0.26458333)" />
      <path
         id="path589-7-5-0-4"
         style="fill:#025b9c;fill-rule:evenodd;stroke-width:0.291796;fill-opacity:0"
         d="m 104.48251,51.102911 v 17.660422 a -63.822209,63.822209 0 0 0 -45.12903,18.693431 -63.822209,63.822209 0 0 0 0,90.258056 -63.822209,63.822209 0 0 0 45.12903,18.69343 v 17.66042 A -81.482778,81.482778 0 0 1 23.00014,132.58579 -81.482778,81.482778 0 0 1 104.48251,51.102911 Z" />
    </g>
    <g
       id="g18">
      <path
         id="path589-7-5-0-0-4"
         style="fill:#ffff00;fill-rule:evenodd;stroke-width:0.801252"
         d="m 394.89453,277.84961 v 65.57617 a 157.6063,157.6063 0 0 1 111.30469,45.78125 157.6063,157.6063 0 0 1 0,222.88867 157.6063,157.6063 0 0 1 -111.30469,45.5625 v 66.71485 a 223.74803,223.74803 0 0 0 158.61524,-64.96485 223.74803,223.74803 0 0 0 0,-316.42773 223.74803,223.74803 0 0 0 -158.61524,-65.13086 z"
         transform="scale(0.26458333)" />
      <path
         id="path14"
         style="fill:#ffff00;fill-rule:evenodd;stroke-width:0.211998;fill-opacity:0"
         d="m 104.48303,73.430055 v 17.350361 a -41.7,41.7 0 0 0 -29.449369,12.112954 -41.7,41.7 0 0 0 0,58.97263 -41.7,41.7 0 0 0 29.449369,12.05508 v 17.65163 a -59.199999,59.199999 0 0 1 -41.966952,-17.18861 -59.199999,59.199999 0 0 1 0,-83.721505 -59.199999,59.199999 0 0 1 41.966952,-17.23254 z" />
    </g>
  </g>
</svg>

<?xml version="1.0" encoding="UTF-8" standalone="no"?>
<!-- Created with Inkscape (http://www.inkscape.org/) -->

<svg
   width="210mm"
   height="297mm"
   viewBox="0 0 210 297"
   version="1.1"
   id="svg5"
   inkscape:version="1.1 (c68e22c387, 2021-05-23)"
   sodipodi:docname="graf-hel-halvcrikel.svg"
   xmlns:inkscape="http://www.inkscape.org/namespaces/inkscape"
   xmlns:sodipodi="http://sodipodi.sourceforge.net/DTD/sodipodi-0.dtd"
   xmlns:xlink="http://www.w3.org/1999/xlink"
   xmlns="http://www.w3.org/2000/svg"
   xmlns:svg="http://www.w3.org/2000/svg">
  <sodipodi:namedview
     id="namedview7"
     pagecolor="#ffffff"
     bordercolor="#666666"
     borderopacity="1.0"
     inkscape:pageshadow="2"
     inkscape:pageopacity="0.0"
     inkscape:pagecheckerboard="0"
     inkscape:document-units="mm"
     showgrid="false"
     inkscape:snap-page="true"
     inkscape:snap-text-baseline="true"
     inkscape:snap-center="true"
     inkscape:snap-object-midpoints="true"
     inkscape:snap-midpoints="true"
     inkscape:snap-smooth-nodes="true"
     inkscape:snap-intersection-paths="true"
     inkscape:object-paths="true"
     inkscape:snap-bbox="true"
     inkscape:bbox-nodes="true"
     inkscape:bbox-paths="true"
     inkscape:snap-bbox-edge-midpoints="true"
     inkscape:snap-bbox-midpoints="true"
     inkscape:zoom="0.50033449"
     inkscape:cx="746.5006"
     inkscape:cy="366.75465"
     inkscape:window-width="1920"
     inkscape:window-height="1001"
     inkscape:window-x="-9"
     inkscape:window-y="-9"
     inkscape:window-maximized="1"
     inkscape:current-layer="layer1" />
  <defs
     id="defs2">
    <linearGradient
       inkscape:collect="always"
       id="linearGradient7590">
      <stop
         style="stop-color:#e10014;stop-opacity:1;"
         offset="0"
         id="stop7586" />
      <stop
         style="stop-color:#fb2b77;stop-opacity:1"
         offset="0.85063761"
         id="stop7820" />
      <stop
         style="stop-color:#e10014;stop-opacity:0;"
         offset="1"
         id="stop7588" />
    </linearGradient>
    <linearGradient
       inkscape:collect="always"
       xlink:href="#linearGradient7590"
       id="linearGradient7592"
       x1="394.89648"
       y1="893.43164"
       x2="394.18939"
       y2="-29.731527"
       gradientUnits="userSpaceOnUse" />
  </defs>
  <g
     inkscape:label="Lager 1"
     inkscape:groupmode="layer"
     id="layer1">
    <path
       id="path589"
       style="fill:url(#linearGradient7592);fill-rule:evenodd;stroke-width:1.40606;fill-opacity:1"
       d="M 394.89453 108.1543 L 394.89453 175.60156 A 325.19061 325.19061 0 0 1 394.89648 175.60156 A 325.19061 325.19061 0 0 1 412.26172 176.07422 A 325.19061 325.19061 0 0 1 413.0332 176.12305 A 325.19061 325.19061 0 0 1 429.52148 177.46484 A 325.19061 325.19061 0 0 1 430.97852 177.63477 A 325.19061 325.19061 0 0 1 446.83789 179.79492 A 325.19061 325.19061 0 0 1 448.46875 180.07227 A 325.19061 325.19061 0 0 1 463.91211 183.0332 A 325.19061 325.19061 0 0 1 465.84375 183.46289 A 325.19061 325.19061 0 0 1 480.92969 187.21484 A 325.19061 325.19061 0 0 1 482.80664 187.73633 A 325.19061 325.19061 0 0 1 497.7168 192.3125 A 325.19061 325.19061 0 0 1 499.5293 192.91797 A 325.19061 325.19061 0 0 1 514.36133 198.36914 A 325.19061 325.19061 0 0 1 515.83203 198.94531 A 325.19061 325.19061 0 0 1 530.7207 205.34961 A 325.19061 325.19061 0 0 1 531.81445 205.84375 A 325.19061 325.19061 0 0 1 546.80078 213.27539 A 325.19061 325.19061 0 0 1 547.38867 213.57812 A 325.19061 325.19061 0 0 1 562.47852 222.11133 A 325.19061 325.19061 0 0 1 562.72461 222.26367 A 325.19061 325.19061 0 0 1 577.09375 231.44727 A 325.19061 325.19061 0 0 1 577.97461 232.05859 A 325.19061 325.19061 0 0 1 591.18945 241.54883 A 325.19061 325.19061 0 0 1 592.48633 242.54688 A 325.19061 325.19061 0 0 1 604.81445 252.45898 A 325.19061 325.19061 0 0 1 606.1875 253.63477 A 325.19061 325.19061 0 0 1 617.81641 264.06445 A 325.19061 325.19061 0 0 1 619.26758 265.44336 A 325.19061 325.19061 0 0 1 630.25586 276.43359 A 325.19061 325.19061 0 0 1 631.60156 277.84961 A 325.19061 325.19061 0 0 1 642.03711 289.48242 A 325.19061 325.19061 0 0 1 643.23633 290.88281 A 325.19061 325.19061 0 0 1 653.18359 303.25781 A 325.19061 325.19061 0 0 1 654.11328 304.46484 A 325.19061 325.19061 0 0 1 663.63477 317.7168 A 325.19061 325.19061 0 0 1 664.24023 318.5957 A 325.19061 325.19061 0 0 1 673.42578 332.9668 A 325.19061 325.19061 0 0 1 673.57617 333.21094 A 325.19061 325.19061 0 0 1 682.13086 348.33984 A 325.19061 325.19061 0 0 1 682.36523 348.79492 A 325.19061 325.19061 0 0 1 689.83398 363.84961 A 325.19061 325.19061 0 0 1 690.36719 365.0293 A 325.19061 325.19061 0 0 1 696.72266 379.80469 A 325.19061 325.19061 0 0 1 697.34961 381.4082 A 325.19061 325.19061 0 0 1 702.76953 396.1582 A 325.19061 325.19061 0 0 1 703.38281 397.99609 A 325.19061 325.19061 0 0 1 707.94531 412.86133 A 325.19061 325.19061 0 0 1 708.47656 414.7793 A 325.19061 325.19061 0 0 1 712.22656 429.84961 A 325.19061 325.19061 0 0 1 712.65625 431.77734 A 325.19061 325.19061 0 0 1 715.60156 447.13477 A 325.19061 325.19061 0 0 1 715.90234 448.9082 A 325.19061 325.19061 0 0 1 718.06055 464.75977 A 325.19061 325.19061 0 0 1 718.2207 466.125 A 325.19061 325.19061 0 0 1 719.55664 482.54492 A 325.19061 325.19061 0 0 1 719.61719 483.47852 A 325.19061 325.19061 0 0 1 720.08594 500.79297 A 325.19061 325.19061 0 0 1 716.08984 551.5625 A 325.19061 325.19061 0 0 1 716.05078 551.79297 A 325.19061 325.19061 0 0 1 704.2168 601.08594 A 325.19061 325.19061 0 0 1 704.07617 601.50977 A 325.19061 325.19061 0 0 1 684.74023 648.1875 A 325.19061 325.19061 0 0 1 684.49023 648.67578 A 325.19061 325.19061 0 0 1 658.14844 691.66016 A 325.19061 325.19061 0 0 1 657.75586 692.19727 A 325.19061 325.19061 0 0 1 625.0625 730.47656 A 325.19061 325.19061 0 0 1 624.58008 730.96094 A 325.19061 325.19061 0 0 1 586.28711 763.66211 A 325.19061 325.19061 0 0 1 585.77344 764.03906 A 325.19061 325.19061 0 0 1 542.7793 790.38672 A 325.19061 325.19061 0 0 1 542.29102 790.63672 A 325.19061 325.19061 0 0 1 495.60938 809.97461 A 325.19061 325.19061 0 0 1 495.19141 810.11523 A 325.19061 325.19061 0 0 1 445.89648 821.94922 A 325.19061 325.19061 0 0 1 445.66602 821.98828 A 325.19061 325.19061 0 0 1 394.89648 825.98438 A 325.19061 325.19061 0 0 1 394.89453 825.98438 L 394.89453 893.43164 A 392.63908 392.63908 0 0 0 394.89648 893.43164 A 392.63908 392.63908 0 0 0 787.53516 500.79297 A 392.63908 392.63908 0 0 0 394.89648 108.1543 A 392.63908 392.63908 0 0 0 394.89453 108.1543 z "
       transform="scale(0.26458333)" />
    <path
       id="path589-7-5-0"
       style="fill:#00ff00;fill-rule:evenodd;stroke-width:1.10285"
       d="M 394.89648 192.82617 L 394.89648 259.57422 A 241.2178 241.2178 0 0 1 565.46289 330.22656 A 241.2178 241.2178 0 0 1 565.46289 671.35938 A 241.2178 241.2178 0 0 1 394.89648 742.01172 L 394.89648 808.75977 A 307.96641 307.96641 0 0 0 702.86133 500.79297 A 307.96641 307.96641 0 0 0 394.89648 192.82617 z "
       transform="scale(0.26458333)" />
    <path
       id="path589-7-5-0-0-4"
       style="fill:#0000ff;fill-rule:evenodd;stroke-width:0.801252"
       d="M 394.89453 277.84961 L 394.89453 343.42578 A 157.6063 157.6063 0 0 1 506.19922 389.20703 A 157.6063 157.6063 0 0 1 506.19922 612.0957 A 157.6063 157.6063 0 0 1 394.89453 657.6582 L 394.89453 724.37305 A 223.74803 223.74803 0 0 0 553.50977 659.4082 A 223.74803 223.74803 0 0 0 553.50977 342.98047 A 223.74803 223.74803 0 0 0 394.89453 277.84961 z "
       transform="scale(0.26458333)" />
  </g>
</svg>
